src/24/actions/zoom-fit-best.svg

<svg xmlns="http://www.w3.org/2000/svg" viewBox="0 0 24 24"><path d="M4 4v4h1V5h3V4H4zm8 0l-2 2h4l-2-2zm4 0v1h3v3h1V4h-4zM7 7v10h10V7H7zm1 1h8v8H8V8zm-2 2l-2 2 2 2v-4zm12 0v4l2-2-2-2zM4 16v4h4v-1H5v-3H4zm15 0v3h-3v1h4v-4h-1zm-9 2l2 2 2-2h-4z" fill="currentColor" color="#5d656b"/></svg>

<svg xmlns="http://www.w3.org/2000/svg" viewBox="0 0 24 24">
  <defs id="defs3051">
    <style type="text/css" id="current-color-scheme">
      .ColorScheme-Text {
        color:#5d656b;
      }
      </style>
  </defs>
 <path style="fill:currentColor;fill-opacity:1;stroke:none" 
     d="M 4 4 L 4 5 L 4 8 L 5 8 L 5 5 L 8 5 L 8 4 L 5 4 L 4 4 z M 12 4 L 10 6 L 14 6 L 12 4 z M 16 4 L 16 5 L 19 5 L 19 8 L 20 8 L 20 5 L 20 4 L 19 4 L 16 4 z M 7 7 L 7 17 L 17 17 L 17 7 L 7 7 z M 8 8 L 16 8 L 16 16 L 8 16 L 8 8 z M 6 10 L 4 12 L 6 14 L 6 10 z M 18 10 L 18 14 L 20 12 L 18 10 z M 4 16 L 4 19 L 4 20 L 8 20 L 8 19 L 5 19 L 5 16 L 4 16 z M 19 16 L 19 19 L 16 19 L 16 20 L 20 20 L 20 19 L 20 16 L 19 16 z M 10 18 L 12 20 L 14 18 L 10 18 z "
     class="ColorScheme-Text"
     />
</svg>
